projeqtor/view/css/customIcons/new/iconNewtab.svg

<?xml version="1.0" encoding="utf-8"?>
<!-- Generator: Adobe Illustrator 16.0.0, SVG Export Plug-In . SVG Version: 6.00 Build 0)  -->
<!DOCTYPE svg PUBLIC "-//W3C//DTD SVG 1.0//EN" "http://www.w3.org/TR/2001/REC-SVG-20010904/DTD/svg10.dtd">
<svg version="1.0" id="Calque_1" xmlns="http://www.w3.org/2000/svg" xmlns:xlink="http://www.w3.org/1999/xlink" x="0px" y="0px"
	 width="40px" height="16px" viewBox="0 0 40 16" enable-background="new 0 0 40 16" xml:space="preserve">
<g>
	<path fill="none" stroke="#FF0000" stroke-linecap="round" stroke-linejoin="round" stroke-miterlimit="10" d="M31.187,0.449
		H18.474c-0.598,0-1.082,0.484-1.082,1.082v1.934h4.181c0.598,0,1.082,0.484,1.082,1.082v7.94h8.532
		c0.598,0,1.082-0.484,1.082-1.082V1.53C32.269,0.933,31.784,0.449,31.187,0.449z"/>
	<path fill="none" stroke="#FF0000" stroke-linecap="round" stroke-linejoin="round" stroke-miterlimit="10" d="M17.392,3.464H8.859
		c-0.598,0-1.082,0.484-1.082,1.082v9.873c0,0.598,0.484,1.082,1.082,1.082h12.713c0.598,0,1.082-0.484,1.082-1.082v-1.933"/>
	<path fill="none" stroke="#FF0000" stroke-linecap="round" stroke-linejoin="round" stroke-miterlimit="10" d="M22.654,12.486
		v-7.94c0-0.597-0.484-1.082-1.082-1.082h-4.181"/>
</g>
<defs>
	
	
		<inkscape:perspective  id="perspective883" inkscape:vp_x="5.4490514 : 16.035042 : 1" inkscape:vp_z="-27.461893 : 10.863061 : 1" inkscape:vp_y="0 : 1000 : 0" sodipodi:type="inkscape:persp3d" inkscape:persp3d-origin="30 : 5.3333333 : 1">
		</inkscape:perspective>
</defs>
<sodipodi:namedview  id="namedview27" inkscape:cy="21.915243" inkscape:cx="18.603389" inkscape:zoom="10.827573" showgrid="false" guidetolerance="10" gridtolerance="10" objecttolerance="10" borderopacity="1" bordercolor="#666666" pagecolor="#ffffff" inkscape:pageopacity="0" inkscape:pageshadow="2" inkscape:window-width="1920" inkscape:window-height="1017" inkscape:snap-nodes="false" inkscape:window-x="-8" inkscape:window-y="-8" inkscape:current-layer="svg25" inkscape:window-maximized="1">
	</sodipodi:namedview>
<g id="Calque_2" display="none">
	<path display="inline" fill="none" stroke="#FF0000" stroke-linecap="round" stroke-linejoin="round" stroke-miterlimit="10" d="
		M26.167,6.875v5.459h2.375c0.554,0,1-0.447,1-1V1.667c0-0.552-0.446-1-1-1h-9.667c-0.552,0-1,0.448-1,1V3.5H22.5"/>
	<path display="inline" fill="none" stroke="#FF0000" stroke-linecap="round" stroke-linejoin="round" stroke-miterlimit="10" d="
		M17.875,3.5H15.5c-0.552,0-1,0.448-1,1v9.667c0,0.554,0.448,1,1,1h9.667c0.554,0,1-0.446,1-1v-1.833"/>
	<path display="inline" fill="none" stroke="#FF0000" stroke-linecap="round" stroke-linejoin="round" stroke-miterlimit="10" d="
		M17.875,3.5"/>
	<path display="inline" fill="none" stroke="#FF0000" stroke-linecap="round" stroke-linejoin="round" stroke-miterlimit="10" d="
		M26.167,12.334"/>
	
		<line display="inline" fill="none" stroke="#FF0000" stroke-linecap="round" stroke-linejoin="round" stroke-miterlimit="10" x1="21.441" y1="7.938" x2="26.798" y2="2.791"/>
	
		<line display="inline" fill="none" stroke="#FF0000" stroke-linecap="round" stroke-linejoin="round" stroke-miterlimit="10" x1="23.787" y1="2.979" x2="26.798" y2="2.791"/>
	
		<line display="inline" fill="none" stroke="#FF0000" stroke-linecap="round" stroke-linejoin="round" stroke-miterlimit="10" x1="26.798" y1="2.791" x2="26.508" y2="5.419"/>
</g>
<g>
	
		<line fill="none" stroke="#FF0000" stroke-linecap="round" stroke-linejoin="round" stroke-miterlimit="10" x1="15.236" y1="6.301" x2="15.236" y2="12.664"/>
	
		<line fill="none" stroke="#FF0000" stroke-linecap="round" stroke-linejoin="round" stroke-miterlimit="10" x1="11.976" y1="9.482" x2="18.456" y2="9.482"/>
</g>
</svg>

<?xml version="1.0" encoding="UTF-8" standalone="no"?>
<!DOCTYPE svg PUBLIC "-//W3C//DTD SVG 1.1//EN" "http://www.w3.org/Graphics/SVG/1.1/DTD/svg11.dtd">
<svg width="100%" height="100%" viewBox="0 0 40 16" version="1.1" xmlns="http://www.w3.org/2000/svg" xmlns:xlink="http://www.w3.org/1999/xlink" xml:space="preserve" xmlns:serif="http://www.serif.com/" style="fill-rule:evenodd;clip-rule:evenodd;stroke-linecap:round;stroke-linejoin:round;stroke-miterlimit:10;">
    <g>
        <path d="M28.187,0.449L15.474,0.449C14.876,0.449 14.392,0.933 14.392,1.531L14.392,3.465L21.573,3.465C22.171,3.465 22.655,3.949 22.655,4.547L22.655,12.487L28.187,12.487C28.785,12.487 29.269,12.003 29.269,11.405L29.269,1.53C29.269,0.933 28.784,0.449 28.187,0.449Z" style="fill:none;fill-rule:nonzero;stroke:rgb(255,0,0);stroke-width:1px;"/>
        <path d="M17.392,3.464L8.859,3.464C8.261,3.464 7.777,3.948 7.777,4.546L7.777,14.419C7.777,15.017 8.261,15.501 8.859,15.501L21.572,15.501C22.17,15.501 22.654,15.017 22.654,14.419L22.654,12.486" style="fill:none;fill-rule:nonzero;stroke:rgb(255,0,0);stroke-width:1px;"/>
        <path d="M22.654,12.486L22.654,4.546C22.654,3.949 22.17,3.464 21.572,3.464L17.391,3.464" style="fill:none;fill-rule:nonzero;stroke:rgb(255,0,0);stroke-width:1px;"/>
    </g>
    <g>
        <path d="M15.236,6.301L15.236,12.664" style="fill:none;fill-rule:nonzero;stroke:rgb(255,0,0);stroke-width:1px;"/>
        <path d="M11.976,9.482L18.456,9.482" style="fill:none;fill-rule:nonzero;stroke:rgb(255,0,0);stroke-width:1px;"/>
    </g>
</svg>
